_inc/systems/logos/retrobat.svg

<?xml version="1.0" encoding="utf-8"?>
<svg viewBox="0 0 200 40" xmlns="http://www.w3.org/2000/svg">
  <path d="M 65.644 22.24 L 65.644 19.613 L 63.256 18.738 C 63.048 17.935 62.771 17.18 62.358 16.482 L 62.382 16.479 L 63.517 14.117 L 61.663 12.26 L 59.299 13.385 L 59.296 13.388 C 58.599 12.976 57.842 12.715 57.039 12.507 L 56.163 10.1 L 53.531 10.1 L 52.655 12.507 C 51.85 12.715 51.093 13.005 50.396 13.417 L 50.391 13.398 L 48.025 12.266 L 46.165 14.12 L 47.292 16.481 L 47.295 16.484 C 46.882 17.18 46.473 17.937 46.266 18.74 L 43.708 19.613 L 43.708 22.24 L 46.266 23.115 C 46.473 23.917 46.839 24.675 47.251 25.37 L 47.269 25.373 L 46.155 27.736 L 48.02 29.593 L 50.39 28.469 L 50.395 28.467 C 51.091 28.877 51.85 29.262 52.653 29.469 L 53.531 32 L 56.163 32 L 57.039 29.469 C 57.843 29.262 58.601 28.91 59.297 28.498 L 59.302 28.486 L 61.669 29.601 L 63.528 27.74 L 62.401 25.375 L 62.399 25.372 C 62.811 24.675 63.048 23.917 63.256 23.115 L 65.644 22.24 Z M 54.846 25.304 C 52.425 25.304 50.461 23.344 50.461 20.927 C 50.461 18.51 52.425 16.549 54.846 16.549 C 57.27 16.549 59.232 18.51 59.232 20.927 C 59.232 23.344 57.27 25.304 54.846 25.304 Z" style="fill: rgb(255, 255, 255);"/>
  <path d="M 74.053 6.37 L 73.478 4.984 L 71.989 5.058 C 71.703 4.679 71.373 4.349 71.003 4.072 L 71.004 4.069 L 71.083 2.576 L 69.694 2 L 68.691 3.111 L 68.691 3.113 C 68.232 3.049 67.761 3.044 67.293 3.111 L 66.289 2 L 64.9 2.574 L 64.978 4.067 C 64.6 4.352 64.27 4.686 63.991 5.056 L 63.99 5.055 L 62.493 4.978 L 61.92 6.364 L 63.03 7.364 L 63.033 7.366 C 62.98 7.795 62.958 8.297 63.024 8.765 L 61.903 9.77 L 62.479 11.157 L 63.982 11.075 C 64.267 11.454 64.606 11.782 64.976 12.059 L 64.976 12.062 L 64.9 13.555 L 66.423 14.129 L 67.559 13.018 L 67.559 13.016 C 67.853 13.07 68.355 13.083 68.824 13.018 L 69.761 14.129 L 71.116 13.555 L 71.022 12.062 C 71.401 11.778 71.724 11.442 72.001 11.073 L 72 11.074 L 73.493 11.151 L 74.068 9.763 L 72.955 8.764 L 72.951 8.762 C 73.017 8.304 73.013 7.837 72.948 7.369 L 74.053 6.37 Z M 68.95 10.376 C 67.672 10.903 66.208 10.298 65.678 9.021 C 65.147 7.745 65.755 6.283 67.033 5.754 C 68.312 5.225 69.777 5.831 70.307 7.107 C 70.836 8.385 70.228 9.847 68.95 10.376 Z" style="fill: rgb(255, 255, 255);"/>
  <path d="M 89.702 10.449 L 88.829 15.237 L 84.676 15.237 L 82.239 29.151 L 76.522 29.151 L 78.959 15.237 L 74.837 15.237 L 75.71 10.449 L 89.702 10.449 Z M 96.292 16.703 L 94.908 24.483 L 97.284 24.483 C 98.067 24.483 98.649 24.39 99.03 24.204 C 99.411 24.011 99.662 23.575 99.782 22.897 L 101.166 15.117 L 98.759 15.117 C 97.996 15.117 97.425 15.21 97.044 15.397 C 96.663 15.589 96.412 16.025 96.292 16.703 Z M 99.752 10 C 102.3 10 104.115 10.496 105.198 11.486 C 106.281 12.471 106.823 13.99 106.823 16.045 C 106.823 18.099 106.495 20.251 105.84 22.498 C 105.191 24.739 104.158 26.481 102.741 27.724 C 101.33 28.974 99.263 29.6 96.542 29.6 C 93.827 29.6 91.928 29.108 90.845 28.124 C 89.762 27.134 89.22 25.61 89.22 23.555 C 89.22 22.578 89.361 21.288 89.641 19.685 C 89.922 18.076 90.294 16.69 90.755 15.526 C 91.216 14.356 91.838 13.342 92.62 12.484 C 94.125 10.828 96.502 10 99.752 10 Z M 115.249 16.703 L 113.864 24.483 L 116.241 24.483 C 117.024 24.483 117.606 24.39 117.987 24.204 C 118.368 24.011 118.618 23.575 118.739 22.897 L 120.123 15.117 L 117.716 15.117 C 116.953 15.117 116.382 15.21 116 15.397 C 115.62 15.589 115.369 16.025 115.249 16.703 Z M 118.709 10 C 121.257 10 123.072 10.496 124.155 11.486 C 125.238 12.471 125.78 13.99 125.78 16.045 C 125.78 18.099 125.452 20.251 124.797 22.498 C 124.148 24.739 123.115 26.481 121.698 27.724 C 120.287 28.974 118.22 29.6 115.499 29.6 C 112.784 29.6 110.885 29.108 109.802 28.124 C 108.719 27.134 108.177 25.61 108.177 23.555 C 108.177 22.578 108.318 21.288 108.598 19.685 C 108.879 18.076 109.251 16.69 109.712 15.526 C 110.173 14.356 110.795 13.342 111.577 12.484 C 113.082 10.828 115.459 10 118.709 10 Z M 138.989 24.363 L 138.146 29.151 L 126.712 29.151 L 130.022 10.449 L 135.739 10.449 L 133.272 24.363 L 138.989 24.363 Z M 138.989 28.822 L 140.674 23.885 C 142.359 24.343 143.903 24.573 145.308 24.573 C 146.712 24.573 147.845 24.513 148.708 24.393 L 148.948 22.897 L 146.451 22.657 C 144.546 22.478 143.194 22.05 142.399 21.371 C 141.609 20.692 141.215 19.735 141.215 18.498 C 141.215 17.96 141.276 17.361 141.396 16.703 C 141.858 14.149 142.693 12.394 143.903 11.437 C 145.12 10.479 147.003 10 149.55 10 C 152.098 10 154.345 10.249 156.291 10.748 L 154.726 15.536 C 152.981 15.237 151.577 15.087 150.513 15.087 C 149.45 15.087 148.548 15.137 147.805 15.237 L 147.564 16.703 L 149.581 16.912 C 151.627 17.132 153.081 17.617 153.944 18.368 C 154.806 19.113 155.238 20.114 155.238 21.371 C 155.238 22.647 154.957 23.964 154.395 25.321 C 154.114 26.019 153.806 26.604 153.472 27.076 C 153.144 27.542 152.723 27.937 152.209 28.263 C 151.7 28.595 151.236 28.845 150.814 29.011 C 150.393 29.184 149.862 29.31 149.219 29.39 C 148.277 29.53 147.123 29.6 145.759 29.6 C 143.272 29.6 141.015 29.34 138.989 28.822 Z" style="fill: rgb(255, 255, 255); white-space: pre;"/>
</svg>

<svg xmlns="http://www.w3.org/2000/svg" viewBox="0 0 200 40"><path d="M65.64 22.24v-2.63l-2.38-.87q-.3-1.2-.9-2.26h.02l1.14-2.36-1.86-1.86-2.36 1.13a9 9 0 0 0-2.26-.88l-.88-2.41h-2.63l-.87 2.4q-1.22.3-2.26.92v-.02l-2.37-1.13-1.87 1.85 1.13 2.36c-.4.7-.82 1.46-1.02 2.26l-2.56.87v2.63l2.56.88c.2.8.57 1.55.98 2.25h.02l-1.12 2.37 1.87 1.85 2.37-1.12c.7.4 1.46.8 2.26 1l.88 2.53h2.63l.88-2.53c.8-.2 1.56-.56 2.26-.97v-.01l2.37 1.11 1.86-1.86-1.13-2.36c.41-.7.65-1.46.86-2.27zm-10.8 3.06a4.38 4.38 0 1 1 0-8.76 4.38 4.38 0 0 1 0 8.76M74.05 6.37l-.57-1.39-1.5.08q-.41-.57-.98-.99l.08-1.5L69.7 2l-1 1.11a5 5 0 0 0-1.4 0L66.3 2l-1.39.57.08 1.5q-.57.43-.99.99l-1.5-.08-.57 1.38 1.11 1a6 6 0 0 0 0 1.4L61.9 9.78l.58 1.39 1.5-.09q.44.57 1 .99l-.08 1.5 1.52.57 1.14-1.11c.3.05.8.06 1.26 0l.94 1.1 1.36-.56-.1-1.5q.57-.43.98-.99l1.5.08.57-1.39-1.11-1q.09-.69-.01-1.4zm-5.1 4a2.5 2.5 0 1 1-1.91-4.63 2.5 2.5 0 0 1 1.91 4.64" style="fill:#fff"/><path d="m89.7 10.45-.87 4.79h-4.15l-2.44 13.91h-5.72l2.44-13.91h-4.12l.87-4.8zm6.6 6.25-1.4 7.78h2.38q1.18 0 1.75-.28t.75-1.3l1.39-7.78h-2.41q-1.15 0-1.72.28t-.75 1.3m3.45-6.7q3.82 0 5.45 1.49 1.62 1.47 1.62 4.56 0 3.07-.98 6.45a10.7 10.7 0 0 1-3.1 5.22q-2.12 1.88-6.2 1.88-4.06 0-5.7-1.48-1.62-1.48-1.62-4.57 0-1.45.42-3.87.42-2.4 1.11-4.15a10 10 0 0 1 1.87-3.05Q94.87 10 99.75 10m15.5 6.7-1.39 7.78h2.38q1.18 0 1.75-.28t.75-1.3l1.38-7.78h-2.4q-1.15 0-1.72.28t-.75 1.3m3.46-6.7q3.82 0 5.45 1.49 1.62 1.47 1.62 4.56 0 3.07-.98 6.45a10.7 10.7 0 0 1-3.1 5.22q-2.12 1.88-6.2 1.88t-5.7-1.48-1.62-4.57q0-1.45.42-3.87.42-2.4 1.11-4.15a10 10 0 0 1 1.87-3.05Q113.83 10 118.7 10m20.28 14.36-.84 4.8H126.7l3.31-18.71h5.72l-2.47 13.91zm0 4.46 1.68-4.93q2.53.68 4.64.68t3.4-.18l.24-1.5-2.5-.23q-2.86-.27-4.05-1.29a3.6 3.6 0 0 1-1.19-2.87q0-.81.19-1.8.7-3.82 2.5-5.26 1.83-1.44 5.65-1.44t6.74.75l-1.56 4.79a26 26 0 0 0-4.22-.45q-1.59 0-2.7.15l-.25 1.46 2.02.21q3.07.32 4.36 1.46 1.3 1.11 1.3 3 0 1.92-.84 3.95a9 9 0 0 1-.93 1.76 4 4 0 0 1-1.26 1.18q-.76.5-1.4.75-.63.26-1.6.38-1.4.21-3.45.21-3.74 0-6.77-.78" style="fill:#fff;white-space:pre"/></svg>
